X: 39935
T: Thompson's
R: jig
M: 6/8
K: Gmajor
A|:BAB GBd|gba ged|ege dBG|AGA B2A|
GED GBd|gba ged|ege dBd|egf g2d:|
|:gba ged|ege dBA|gba ged|eaa age|
gba ged|ege dBA|BAB dBA|1 GBA G2d:|2 GBA G2||

